static/assets/img/icons/theme/tools/screwdriver.svg

<svg height="24" viewBox="0 0 24 24" width="24" xmlns="http://www.w3.org/2000/svg"><g fill="none" fill-rule="evenodd"><path d="m0 0h24v24h-24z" opacity="0"/><g fill="#000"><path d="m8.46446609 11.2928932-1.06066017-1.0606602c-.19526214-.1952621-.19526214-.51184459 0-.70710673l.70710678-.70710679c.19526215-.19526214.51184464-.19526214.70710678 0l6.36396102 6.36396102c.1952622.1952622.1952622.5118447 0 .7071068l-.7071068.7071068c-.1952621.1952621-.5118446.1952621-.7071067 0l-1.0606602-1.0606602-5.65685427 5.6568543c-.78104858.7810485-2.04737854.7810485-2.82842712 0l-1.41421357-1.4142136c-.78104858-.7810486-.78104858-2.0473785 0-2.8284271zm-3.88908729 6.7175144c-.19526215.1952622-.19526215.5118447 0 .7071068.19526214.1952622.51184463.1952622.70710678 0l4.24264069-4.2426407c.19526214-.1952621.19526214-.5118446 0-.7071067-.19526215-.1952622-.51184464-.1952622-.70710679 0z" opacity=".3"/><path d="m16.9497475 5.63603897-.1709293-.17092927c-.1952621-.19526215-.1952621-.51184464 0-.70710678.0478806-.0478806.1049877-.08553684.1678581-.11068496l2.5253813-1.01015254c.1857084-.07428336.3978174-.03074634.5392487.11068495l.2408433.24084329c.1414313.14143129.1849683.35354034.110685.53924873l-1.0101526 2.52538136c-.1025567.25639176-.3935419.38109971-.6499336.27854301-.0628703-.02514812-.1199775-.06280436-.1678581-.11068496l-.1709293-.17092927-5.6568542 5.65685427-1.4142136-1.4142136z"/></g></g></svg>

<svg width="24px" height="24px" viewBox="0 0 24 24" version="1.1" xmlns="http://www.w3.org/2000/svg" xmlns:xlink="http://www.w3.org/1999/xlink">
    <title>Icon For Screwdriver</title>
    <g stroke="none" stroke-width="1" fill="none" fill-rule="evenodd">
        <rect opacity="0" x="0" y="0" width="24" height="24"></rect>
        <path d="M8.46446609,11.2928932 L7.40380592,10.232233 C7.20854378,10.0369709 7.20854378,9.72038841 7.40380592,9.52512627 L8.1109127,8.81801948 C8.30617485,8.62275734 8.62275734,8.62275734 8.81801948,8.81801948 L15.1819805,15.1819805 C15.3772427,15.3772427 15.3772427,15.6938252 15.1819805,15.8890873 L14.4748737,16.5961941 C14.2796116,16.7914562 13.9630291,16.7914562 13.767767,16.5961941 L12.7071068,15.5355339 L7.05025253,21.1923882 C6.26920395,21.9734367 5.00287399,21.9734367 4.22182541,21.1923882 L2.80761184,19.7781746 C2.02656326,18.997126 2.02656326,17.7307961 2.80761184,16.9497475 L8.46446609,11.2928932 Z M4.5753788,18.0104076 C4.38011665,18.2056698 4.38011665,18.5222523 4.5753788,18.7175144 C4.77064094,18.9127766 5.08722343,18.9127766 5.28248558,18.7175144 L9.52512627,14.4748737 C9.72038841,14.2796116 9.72038841,13.9630291 9.52512627,13.767767 C9.32986412,13.5725048 9.01328163,13.5725048 8.81801948,13.767767 L4.5753788,18.0104076 Z" fill="#000000" opacity="0.3"></path>
        <path d="M16.9497475,5.63603897 L16.7788182,5.4651097 C16.5835561,5.26984755 16.5835561,4.95326506 16.7788182,4.75800292 C16.8266988,4.71012232 16.8838059,4.67246608 16.9466763,4.64731796 L19.4720576,3.63716542 C19.657766,3.56288206 19.869875,3.60641908 20.0113063,3.74785037 L20.2521496,3.98869366 C20.3935809,4.13012495 20.4371179,4.342234 20.3628346,4.52794239 L19.352682,7.05332375 C19.2501253,7.30971551 18.9591401,7.43442346 18.7027484,7.33186676 C18.6398781,7.30671864 18.5827709,7.2690624 18.5348903,7.2211818 L18.363961,7.05025253 L12.7071068,12.7071068 L11.2928932,11.2928932 L16.9497475,5.63603897 Z" fill="#000000"></path>
    </g>
</svg>
